pictures/mastercard.svg

<svg width="40" height="30" viewBox="0 0 40 30" fill="none" xmlns="http://www.w3.org/2000/svg">
<g clip-path="url(#clip0_3045_26073)">
<path d="M7.24986 29.9342V27.9432C7.24986 27.1816 6.76947 26.6829 5.94481 26.6829C5.53248 26.6829 5.08412 26.8143 4.77588 27.2473C4.53569 26.8839 4.19141 26.6829 3.675 26.6829C3.33072 26.6829 2.98645 26.7834 2.71423 27.1468V26.7486H1.99365V29.9342H2.71423V28.1751C2.71423 27.6107 3.02248 27.344 3.50286 27.344C3.98324 27.344 4.22344 27.6416 4.22344 28.1751V29.9342H4.94401V28.1751C4.94401 27.6107 5.28829 27.344 5.73264 27.344C6.21303 27.344 6.45322 27.6416 6.45322 28.1751V29.9342H7.24986ZM17.9384 26.7486H16.7695V25.786H16.0489V26.7486H15.3964V27.3787H16.0489V28.8401C16.0489 29.5708 16.3571 29.9999 17.1818 29.9999C17.4901 29.9999 17.8343 29.8994 18.0745 29.7679L17.8664 29.1687C17.6582 29.3001 17.418 29.3349 17.2459 29.3349C16.9016 29.3349 16.7655 29.1339 16.7655 28.8053V27.3787H17.9344V26.7486H17.9384ZM24.0553 26.679C23.643 26.679 23.3668 26.88 23.1946 27.1429V26.7447H22.474V29.9303H23.1946V28.1365C23.1946 27.6068 23.4348 27.3053 23.8832 27.3053C24.0193 27.3053 24.1914 27.3401 24.3315 27.371L24.5397 26.7061C24.3956 26.679 24.1914 26.679 24.0553 26.679ZM14.8119 27.0115C14.4676 26.7795 13.9872 26.679 13.4708 26.679C12.6462 26.679 12.0977 27.0772 12.0977 27.7074C12.0977 28.237 12.5101 28.5385 13.2306 28.6352L13.5749 28.67C13.9512 28.7357 14.1594 28.8362 14.1594 29.0025C14.1594 29.2344 13.8832 29.4007 13.4028 29.4007C12.9224 29.4007 12.5421 29.2344 12.3019 29.0682L11.9576 29.5978C12.3339 29.8646 12.8503 29.996 13.3668 29.996C14.3275 29.996 14.88 29.563 14.88 28.9677C14.88 28.4032 14.4316 28.1056 13.7471 28.005L13.4028 27.9702C13.0945 27.9354 12.8543 27.8697 12.8543 27.6726C12.8543 27.4406 13.0945 27.3092 13.4748 27.3092C13.8872 27.3092 14.2995 27.4754 14.5077 27.5759L14.8119 27.0115ZM33.9832 26.679C33.5709 26.679 33.2947 26.88 33.1226 27.1429V26.7447H32.402V29.9303H33.1226V28.1365C33.1226 27.6068 33.3627 27.3053 33.8111 27.3053C33.9472 27.3053 34.1194 27.3401 34.2595 27.371L34.4676 26.7138C34.3275 26.679 34.1234 26.679 33.9832 26.679ZM24.7759 28.3414C24.7759 29.304 25.4644 29.9999 26.5293 29.9999C27.0097 29.9999 27.3539 29.8994 27.6982 29.6365L27.3539 29.072C27.0777 29.2731 26.8055 29.3697 26.4933 29.3697C25.9088 29.3697 25.4965 28.9715 25.4965 28.3414C25.4965 27.7421 25.9088 27.344 26.4933 27.313C26.8015 27.313 27.0777 27.4135 27.3539 27.6107L27.6982 27.0463C27.3539 26.7795 27.0097 26.6829 26.5293 26.6829C25.4644 26.679 24.7759 27.3787 24.7759 28.3414ZM31.4412 28.3414V26.7486H30.7206V27.1468C30.4804 26.8491 30.1362 26.6829 29.6878 26.6829C28.7591 26.6829 28.0385 27.3787 28.0385 28.3414C28.0385 29.304 28.7591 29.9999 29.6878 29.9999C30.1682 29.9999 30.5125 29.8336 30.7206 29.536V29.9342H31.4412V28.3414ZM28.7951 28.3414C28.7951 27.7769 29.1714 27.313 29.7919 27.313C30.3764 27.313 30.7887 27.746 30.7887 28.3414C30.7887 28.9058 30.3764 29.3697 29.7919 29.3697C29.1754 29.3349 28.7951 28.9019 28.7951 28.3414ZM20.1722 26.679C19.2114 26.679 18.5229 27.344 18.5229 28.3375C18.5229 29.3349 19.2114 29.996 20.2082 29.996C20.6886 29.996 21.169 29.8646 21.5493 29.563L21.205 29.0643C20.9288 29.2653 20.5845 29.3968 20.2443 29.3968C19.7959 29.3968 19.3515 29.1958 19.2475 28.6352H21.6854C21.6854 28.5347 21.6854 28.469 21.6854 28.3684C21.7174 27.344 21.0969 26.679 20.1722 26.679ZM20.1722 27.2782C20.6206 27.2782 20.9288 27.545 20.9969 28.0398H19.2795C19.3475 27.6107 19.6558 27.2782 20.1722 27.2782ZM38.0745 28.3414V25.4883H37.3539V27.1468C37.1138 26.8491 36.7695 26.6829 36.3211 26.6829C35.3924 26.6829 34.6718 27.3787 34.6718 28.3414C34.6718 29.304 35.3924 29.9999 36.3211 29.9999C36.8015 29.9999 37.1458 29.8336 37.3539 29.536V29.9342H38.0745V28.3414ZM35.4284 28.3414C35.4284 27.7769 35.8047 27.313 36.4252 27.313C37.0097 27.313 37.422 27.746 37.422 28.3414C37.422 28.9058 37.0097 29.3697 36.4252 29.3697C35.8047 29.3349 35.4284 28.9019 35.4284 28.3414ZM11.3051 28.3414V26.7486H10.5845V27.1468C10.3443 26.8491 10.0001 26.6829 9.5517 26.6829C8.62296 26.6829 7.90238 27.3787 7.90238 28.3414C7.90238 29.304 8.62296 29.9999 9.5517 29.9999C10.0321 29.9999 10.3764 29.8336 10.5845 29.536V29.9342H11.3051V28.3414ZM8.62696 28.3414C8.62696 27.7769 9.00326 27.313 9.62376 27.313C10.2082 27.313 10.6206 27.746 10.6206 28.3414C10.6206 28.9058 10.2082 29.3697 9.62376 29.3697C9.00326 29.3349 8.62696 28.9019 8.62696 28.3414Z" fill="white"/>
<path d="M25.3964 2.55566H14.5718V21.3366H25.3964V2.55566Z" fill="#FF5A00"/>
<path d="M15.2922 11.9459C15.2922 8.13016 17.1497 4.74356 20 2.55541C17.9023 0.962629 15.2562 0 12.3699 0C5.53243 0 0 5.34278 0 11.9459C0 18.549 5.53243 23.8918 12.3699 23.8918C15.2562 23.8918 17.9023 22.9291 20 21.3363C17.1457 19.1791 15.2922 15.7616 15.2922 11.9459Z" fill="#EB001B"/>
<path d="M40 11.9459C40 18.549 34.4676 23.8918 27.6301 23.8918C24.7438 23.8918 22.0977 22.9291 20 21.3363C22.8863 19.1443 24.7078 15.7616 24.7078 11.9459C24.7078 8.13016 22.8503 4.74356 20 2.55541C22.0937 0.962629 24.7398 0 27.6261 0C34.4676 0 40 5.37758 40 11.9459Z" fill="#F79E1B"/>
</g>
<defs>
<clipPath id="clip0_3045_26073">
<rect width="40" height="30" fill="white"/>
</clipPath>
</defs>
</svg>

<svg width="40" height="30" fill="none" xmlns="http://www.w3.org/2000/svg"><g clip-path="url(#a)"><path d="M7.25 29.934v-1.99c0-.762-.48-1.261-1.305-1.261-.413 0-.86.131-1.17.564-.24-.363-.584-.564-1.1-.564-.344 0-.689.1-.96.464v-.398h-.721v3.185h.72v-1.759c0-.564.308-.831.789-.831.48 0 .72.298.72.831v1.76h.721v-1.76c0-.564.344-.831.789-.831.48 0 .72.298.72.831v1.76h.797Zm10.688-3.185H16.77v-.963h-.721v.963h-.653v.63h.653v1.461c0 .73.308 1.16 1.133 1.16.308 0 .652-.1.893-.232l-.209-.6a1.185 1.185 0 0 1-.62.167c-.344 0-.48-.201-.48-.53V27.38h1.168v-.63h.004Zm6.117-.07a.984.984 0 0 0-.86.464v-.398h-.721v3.185h.72v-1.793c0-.53.24-.832.69-.832.135 0 .307.035.447.066l.209-.665c-.144-.027-.349-.027-.485-.027Zm-9.243.333c-.344-.233-.825-.333-1.341-.333-.825 0-1.373.398-1.373 1.028 0 .53.412.831 1.133.928l.344.035c.376.066.584.166.584.332 0 .232-.276.399-.756.399s-.86-.167-1.101-.333l-.344.53c.376.267.892.398 1.409.398.96 0 1.513-.433 1.513-1.028 0-.565-.448-.862-1.133-.963l-.344-.035c-.309-.035-.549-.1-.549-.297 0-.232.24-.364.62-.364.413 0 .825.166 1.034.267l.304-.564Zm19.171-.333a.984.984 0 0 0-.86.464v-.398h-.721v3.185h.72v-1.793c0-.53.24-.832.69-.832.135 0 .307.035.448.066l.208-.657c-.14-.035-.345-.035-.485-.035Zm-9.207 1.662c0 .963.688 1.659 1.753 1.659.48 0 .825-.1 1.17-.363l-.345-.565a1.407 1.407 0 0 1-.86.298c-.585 0-.997-.399-.997-1.029 0-.599.412-.997.996-1.028.309 0 .585.1.86.298l.345-.565c-.344-.267-.688-.363-1.169-.363-1.065-.004-1.753.696-1.753 1.658Zm6.665 0V26.75h-.72v.398c-.24-.298-.585-.464-1.033-.464-.929 0-1.65.696-1.65 1.658 0 .963.721 1.659 1.65 1.659.48 0 .825-.166 1.033-.464v.398h.72v-1.593Zm-2.646 0c0-.564.376-1.028.997-1.028.584 0 .997.433.997 1.028 0 .565-.413 1.029-.997 1.029-.617-.035-.997-.468-.997-1.029Zm-8.623-1.662c-.96 0-1.65.665-1.65 1.659 0 .997.69 1.658 1.686 1.658.48 0 .961-.131 1.341-.433l-.344-.499c-.276.201-.62.333-.96.333-.45 0-.893-.201-.998-.762h2.438v-.267c.032-1.024-.588-1.689-1.513-1.689Zm0 .6c.449 0 .757.266.825.76h-1.718c.069-.428.377-.76.893-.76Zm17.902 1.062v-2.853h-.72v1.659c-.24-.298-.584-.464-1.033-.464-.929 0-1.65.696-1.65 1.658 0 .963.721 1.659 1.65 1.659.48 0 .825-.166 1.033-.464v.398h.72v-1.593Zm-2.646 0c0-.564.377-1.028.997-1.028.585 0 .997.433.997 1.028 0 .565-.412 1.029-.997 1.029-.62-.035-.997-.468-.997-1.029Zm-24.123 0V26.75h-.72v.398c-.24-.298-.585-.464-1.033-.464-.929 0-1.65.696-1.65 1.658 0 .963.721 1.659 1.65 1.659.48 0 .824-.166 1.033-.464v.398h.72v-1.593Zm-2.678 0c0-.564.376-1.028.997-1.028.584 0 .997.433.997 1.028 0 .565-.413 1.029-.997 1.029-.62-.035-.997-.468-.997-1.029Z" fill="#fff"/><path d="M25.396 2.556H14.572v18.78h10.824V2.557Z" fill="#FF5A00"/><path d="M15.292 11.946c0-3.816 1.858-7.202 4.708-9.39A12.582 12.582 0 0 0 12.37 0C5.532 0 0 5.343 0 11.946s5.532 11.946 12.37 11.946c2.886 0 5.532-.963 7.63-2.556-2.854-2.157-4.708-5.574-4.708-9.39Z" fill="#EB001B"/><path d="M40 11.946c0 6.603-5.532 11.946-12.37 11.946-2.886 0-5.532-.963-7.63-2.556 2.886-2.192 4.708-5.574 4.708-9.39 0-3.816-1.858-7.202-4.708-9.39A12.561 12.561 0 0 1 27.626 0C34.468 0 40 5.378 40 11.946Z" fill="#F79E1B"/></g><defs><clipPath id="a"><path fill="#fff" d="M0 0h40v30H0z"/></clipPath></defs></svg>
